img/logo.svg

<svg width="136" height="40" viewBox="0 0 136 40" fill="none" xmlns="http://www.w3.org/2000/svg">
<g clip-path="url(#clip0_53_814)">
<path d="M59.133 13.2198C59.2211 12.5538 59.4413 11.9128 59.7804 11.3356C60.1194 10.7584 60.5703 10.257 61.1058 9.86167C62.3932 9.01569 63.9116 8.60557 65.443 8.69021L65.0163 11.2603C64.5447 11.7253 64.1008 12.2184 63.6871 12.7371L63.946 12.9146C64.9261 11.6492 66.1084 10.5596 67.4437 9.69127C68.533 9.03235 69.7783 8.68632 71.0464 8.69021C72.0454 8.65357 73.0207 9.00383 73.7747 9.66997C74.5389 10.4008 75.0515 11.3615 75.2367 12.4105C76.0752 11.2627 77.1616 10.3252 78.4127 9.66997C79.6767 9.02299 81.0755 8.69424 82.4911 8.71151C83.2244 8.67472 83.9569 8.79976 84.6381 9.07799C85.3192 9.35622 85.9328 9.78103 86.4366 10.3231C86.9446 10.9005 87.3353 11.5741 87.5862 12.3051C87.8371 13.0361 87.9433 13.8102 87.8986 14.583C87.9021 15.2118 87.8459 15.8395 87.7307 16.4573L85.751 27.8169C85.6689 28.3752 85.459 28.9061 85.1383 29.3672C84.8176 29.8283 84.395 30.2068 83.9042 30.4722C82.4755 31.1132 80.9164 31.398 79.3571 31.3029L81.8475 16.9685C81.9035 16.4952 81.9314 16.1899 81.9314 16.0527C81.9314 14.5096 81.2016 13.7381 79.7418 13.7381C79.2517 13.7308 78.7654 13.8282 78.3147 14.0239C77.864 14.2196 77.4588 14.5092 77.1255 14.8741C76.3572 15.7525 75.8694 16.8466 75.7264 18.0122L74.0125 27.8169C73.9288 28.3746 73.7183 28.9049 73.3978 29.3657C73.0773 29.8266 72.6554 30.2054 72.1657 30.4722C70.7668 31.1137 69.2347 31.3988 67.7026 31.3029L70.193 16.9685C70.2489 16.4952 70.2769 16.1899 70.2769 16.0527C70.2994 15.7452 70.2615 15.4362 70.1655 15.1437C70.0694 14.8512 69.917 14.581 69.7173 14.3487C69.5135 14.1342 69.2654 13.9681 68.9908 13.8626C68.7162 13.757 68.422 13.7145 68.1293 13.7381C67.6277 13.7291 67.1301 13.8297 66.6703 14.0331C66.2104 14.2364 65.799 14.5378 65.464 14.9167C64.6999 15.8665 64.215 17.0156 64.0649 18.2323L62.3929 27.8169C62.3202 28.3783 62.1141 28.9133 61.7924 29.3759C61.4706 29.8384 61.043 30.2147 60.5461 30.4722C59.1146 31.1122 57.5535 31.397 55.992 31.3029L59.133 13.2198ZM47.7723 12.2046C47.863 11.6483 48.0811 11.1214 48.4092 10.6663C48.7373 10.2113 49.1661 9.8408 49.6611 9.58478C51.1018 8.92378 52.6787 8.62659 54.2571 8.71861L50.9763 27.8027C50.9004 28.3687 50.6884 28.907 50.359 29.3701C50.0296 29.8332 49.5929 30.2068 49.0875 30.458C47.6399 31.0938 46.0662 31.3783 44.4914 31.2887L47.7723 12.2046ZM51.6408 7.05726C50.785 7.09965 49.9436 6.82175 49.2763 6.27629C48.9844 6.0152 48.7523 5.69241 48.5964 5.33058C48.4405 4.96875 48.3646 4.57666 48.3739 4.18187C48.3729 3.61766 48.4939 3.0601 48.7284 2.54854C48.9629 2.03698 49.3052 1.5839 49.731 1.22127C50.595 0.413824 51.7328 -0.0236839 52.907 0.0001113C53.7553 -0.0347199 54.5843 0.262676 55.2225 0.830782C55.5153 1.08036 55.7486 1.39397 55.9048 1.74809C56.0611 2.10222 56.1364 2.48766 56.125 2.87551C56.127 3.44091 56.0065 3.99986 55.772 4.51272C55.5374 5.02558 55.1946 5.47981 54.7678 5.84321C53.9266 6.64113 52.8131 7.0764 51.6618 7.05726H51.6408ZM34.8516 31.2887C33.1744 31.3645 31.5346 30.7707 30.2835 29.6345C29.7099 29.0546 29.2614 28.3601 28.9664 27.595C28.6713 26.8299 28.5362 26.0109 28.5696 25.19C28.5707 24.6786 28.6128 24.1681 28.6955 23.6636L32.1933 3.48609C32.277 2.92841 32.4874 2.39815 32.808 1.93729C33.1285 1.47642 33.5504 1.09759 34.0401 0.830782C35.5016 0.192229 37.0895 -0.0921709 38.6781 0.0001113L34.5997 23.4293C34.5542 23.7184 34.5261 24.01 34.5158 24.3026C34.4881 24.5631 34.5197 24.8267 34.6082 25.0729C34.6968 25.3191 34.8399 25.5413 35.0265 25.7225C35.5526 26.0567 36.1704 26.211 36.7893 26.1627C37.9629 26.1436 39.1156 25.8445 40.1542 25.2894C40.3877 25.5302 40.5702 25.8169 40.6905 26.1319C40.8108 26.4469 40.8663 26.7836 40.8537 27.1212C40.8374 27.7222 40.6709 28.3091 40.3699 28.827C40.0689 29.3448 39.6432 29.7766 39.1328 30.0818C37.8729 30.9283 36.3823 31.3506 34.8726 31.2887H34.8516ZM12.1721 31.2887C8.44113 31.2887 5.46337 30.6923 3.23879 29.4996C1.01421 28.3068 -0.0654287 26.6668 -0.000137177 24.5795C-0.000137177 21.3846 1.98892 19.7848 5.96705 19.78C5.93389 20.1292 5.91988 20.48 5.92507 20.8308C5.87906 21.5954 6.01011 22.3603 6.30773 23.0643C6.60535 23.7683 7.06127 24.3917 7.63898 24.8847C8.78624 25.7793 10.4372 26.2337 12.6198 26.2337C14.316 26.3214 16.0012 25.9123 17.4747 25.0551C18.0256 24.724 18.4815 24.2522 18.7969 23.6867C19.1124 23.1212 19.2763 22.4817 19.2725 21.8318C19.2908 21.2737 19.0923 20.7307 18.7199 20.3196C18.1737 19.7799 17.5098 19.3786 16.7821 19.1481C15.5551 18.656 14.2921 18.262 13.0045 17.9696C9.60005 17.146 7.09566 16.081 5.49135 14.7747C4.74538 14.1792 4.14466 13.4172 3.73581 12.5479C3.32696 11.6786 3.12098 10.7254 3.13386 9.76227C3.09361 7.91185 3.63511 6.09651 4.67987 4.57945C5.82133 3.01637 7.38685 1.82474 9.18499 1.15027C11.4107 0.322875 13.7687 -0.0767858 16.1385 -0.028287C18.0557 -0.0571621 19.9661 0.208536 21.8049 0.759786C23.2585 1.15731 24.5894 1.92179 25.6734 2.98201C26.1116 3.38445 26.4622 3.87513 26.7031 4.42277C26.944 4.9704 27.0698 5.56297 27.0725 6.1627C27.0725 9.0026 25.1558 10.4983 21.3222 10.6497C21.3576 10.3244 21.3763 9.99733 21.3782 9.66997C21.3782 8.07489 20.9118 6.9129 19.9791 6.184C19.0463 5.45509 17.6239 5.0788 15.7118 5.05513C14.0975 4.95622 12.4889 5.32559 11.0738 6.1201C10.5553 6.41162 10.1254 6.84166 9.83067 7.36357C9.53593 7.88547 9.38763 8.47932 9.40185 9.08069C9.40963 9.51009 9.52885 9.92981 9.74747 10.2975C9.96609 10.6652 10.2764 10.9679 10.6471 11.1751C12.0526 11.9026 13.5567 12.4146 15.1102 12.6945C18.6966 13.5606 21.3292 14.6824 23.0081 16.0597C23.8022 16.6508 24.4461 17.4253 24.8865 18.3192C25.3269 19.2131 25.5511 20.2006 25.5405 21.2C25.5821 23.1317 25.0107 25.0259 23.9106 26.6029C22.7365 28.203 21.123 29.4157 19.2725 30.0889C17.0097 30.9432 14.6067 31.3504 12.1931 31.2887H12.1721Z" fill="#FF7900"/>
<path d="M113.243 40.0001C112.808 40.029 112.371 39.9622 111.963 39.8041C111.555 39.6461 111.185 39.4005 110.879 39.0842C110.323 38.3349 110.049 37.4078 110.109 36.4715C110.116 35.9603 110.158 35.4502 110.235 34.9451C110.967 35.1164 111.716 35.2045 112.467 35.2078C113.416 35.2462 114.348 34.9362 115.09 34.3345C116.12 33.3978 116.99 32.2942 117.665 31.0686L118.567 29.5848L113.845 9.19429C114.19 9.03915 114.555 8.93628 114.929 8.889C115.389 8.78267 115.857 8.72556 116.328 8.71861C117.172 8.68208 118.008 8.89415 118.735 9.32918C119.037 9.48397 119.301 9.70513 119.508 9.97657C119.715 10.248 119.859 10.5629 119.931 10.8982L122.163 22.2578L121.092 24.3878L121.435 24.5226L129.081 10.884C129.476 10.1911 130.076 9.64209 130.795 9.31498C131.607 8.90326 132.504 8.69395 133.412 8.70441C133.917 8.70915 134.421 8.76624 134.916 8.8748C135.291 8.90437 135.657 9.00808 135.993 9.18009L122.345 32.8152C121.235 34.9057 119.75 36.767 117.965 38.3033C116.634 39.4092 114.964 40.0093 113.243 40.0001ZM94.5164 3.31569C94.6691 2.48906 95.1302 1.75409 95.8036 1.26387C96.4815 0.698844 97.3328 0.39241 98.21 0.397698H117.728C117.549 1.9195 116.969 3.36416 116.049 4.57945C115.635 5.01718 115.134 5.36016 114.579 5.58546C114.024 5.81075 113.428 5.91315 112.831 5.88581H100.4L99.2384 12.5525H110.487C110.312 14.0848 109.735 15.5413 108.815 16.7697C108.393 17.2054 107.883 17.5437 107.321 17.7617C106.758 17.9798 106.156 18.0725 105.555 18.0335H98.294L96.741 26.8869C96.6553 27.5705 96.423 28.2268 96.0604 28.8094C95.6978 29.3921 95.2137 29.887 94.6423 30.2593C93.551 30.9598 91.8907 31.31 89.6615 31.31L94.5164 3.31569Z" fill="#9400B5"/>
</g>
<defs>
<clipPath id="clip0_53_814">
<rect width="136" height="40" fill="white"/>
</clipPath>
</defs>
</svg>

<svg width="136" height="40" fill="none" xmlns="http://www.w3.org/2000/svg"><g clip-path="url(#clip0_53_814)"><path d="M59.133 13.22a5.02 5.02 0 01.647-1.884 4.942 4.942 0 011.326-1.474 7.174 7.174 0 014.337-1.172l-.427 2.57a16.68 16.68 0 00-1.329 1.477l.259.178a14.257 14.257 0 013.498-3.224 6.918 6.918 0 013.602-1 3.903 3.903 0 012.729.979 4.992 4.992 0 011.462 2.74 9.25 9.25 0 013.176-2.74 8.715 8.715 0 014.078-.958 5.012 5.012 0 012.147.366 5.078 5.078 0 011.799 1.245 5.9 5.9 0 011.15 1.982 5.99 5.99 0 01.312 2.278 9.924 9.924 0 01-.168 1.874l-1.98 11.36a3.644 3.644 0 01-.613 1.55c-.32.461-.743.84-1.234 1.105a9.667 9.667 0 01-4.547.83l2.49-14.334c.056-.473.084-.778.084-.915 0-1.543-.73-2.315-2.19-2.315-.49-.007-.976.09-1.426.286a3.507 3.507 0 00-1.19.85 5.848 5.848 0 00-1.399 3.138l-1.713 9.805a3.666 3.666 0 01-.615 1.549 3.6 3.6 0 01-1.232 1.106 9.308 9.308 0 01-4.463.83l2.49-14.334c.056-.473.084-.778.084-.915a2.363 2.363 0 00-.56-1.704 1.984 1.984 0 00-1.588-.61 3.43 3.43 0 00-1.459.294 3.5 3.5 0 00-1.206.884 6.574 6.574 0 00-1.4 3.315l-1.671 9.585a3.523 3.523 0 01-.6 1.559 3.46 3.46 0 01-1.247 1.096 9.722 9.722 0 01-4.554.83l3.141-18.082zm-11.36-1.015c.09-.557.308-1.084.636-1.539a3.562 3.562 0 011.252-1.081 9.668 9.668 0 014.596-.866l-3.28 19.084a3.509 3.509 0 01-.618 1.567 3.44 3.44 0 01-1.272 1.088 9.999 9.999 0 01-4.596.83l3.281-19.083zm3.868-5.148a3.464 3.464 0 01-2.365-.78 2.704 2.704 0 01-.68-.946 2.74 2.74 0 01-.222-1.15 3.904 3.904 0 01.354-1.632 3.85 3.85 0 011.003-1.328 4.516 4.516 0 013.176-1.22 3.28 3.28 0 012.316.83 2.575 2.575 0 01.902 2.045 3.905 3.905 0 01-.353 1.637 3.85 3.85 0 01-1.004 1.33 4.406 4.406 0 01-3.106 1.214h-.021zM34.85 31.29a6.365 6.365 0 01-4.567-1.655 5.936 5.936 0 01-1.318-2.039 6.006 6.006 0 01-.396-2.405 9.564 9.564 0 01.125-1.526l3.498-20.178a3.665 3.665 0 01.615-1.549A3.6 3.6 0 0134.04.831 10.115 10.115 0 0138.678 0L34.6 23.428a7.26 7.26 0 00-.084.874 1.736 1.736 0 00.51 1.42 2.87 2.87 0 001.763.44 7.392 7.392 0 003.365-.874 2.511 2.511 0 01.7 1.832 3.59 3.59 0 01-.484 1.706c-.301.518-.727.95-1.237 1.255a7.114 7.114 0 01-4.26 1.207h-.021zm-22.679 0c-3.73 0-6.709-.597-8.933-1.79-2.225-1.192-3.304-2.832-3.24-4.92 0-3.194 1.99-4.794 5.968-4.799-.033.35-.047.7-.042 1.05a4.97 4.97 0 00.383 2.234 4.9 4.9 0 001.331 1.82c1.147.895 2.798 1.35 4.98 1.35a8.752 8.752 0 004.856-1.179 3.695 3.695 0 001.322-1.368c.315-.566.48-1.205.476-1.855a2.148 2.148 0 00-.553-1.512 4.835 4.835 0 00-1.938-1.172 25.051 25.051 0 00-3.777-1.178c-3.405-.824-5.91-1.889-7.514-3.195a6.253 6.253 0 01-1.755-2.227 6.348 6.348 0 01-.602-2.786A8.803 8.803 0 014.68 4.58a9.879 9.879 0 014.505-3.43 18.845 18.845 0 016.954-1.178 18.746 18.746 0 015.666.788 8.886 8.886 0 013.868 2.222c.439.402.79.893 1.03 1.44a4.38 4.38 0 01.37 1.74c0 2.84-1.917 4.336-5.75 4.488a9.57 9.57 0 00.055-.98c0-1.595-.466-2.757-1.399-3.486-.933-.729-2.355-1.105-4.267-1.129a8.418 8.418 0 00-4.638 1.065A3.27 3.27 0 009.83 7.364 3.333 3.333 0 009.4 9.08a2.444 2.444 0 001.246 2.094c1.406.728 2.91 1.24 4.463 1.52 3.587.866 6.22 1.987 7.898 3.365a6.269 6.269 0 011.879 2.26c.44.893.664 1.88.654 2.88a9.104 9.104 0 01-1.63 5.403 9.995 9.995 0 01-4.639 3.486 18.687 18.687 0 01-7.079 1.2h-.02z" fill="#FF7900"/><path d="M113.243 40a2.994 2.994 0 01-1.28-.196 3.033 3.033 0 01-1.084-.72 3.962 3.962 0 01-.77-2.613c.007-.51.049-1.02.126-1.526a9.99 9.99 0 002.232.263 3.913 3.913 0 002.623-.873c1.03-.937 1.9-2.04 2.575-3.266l.902-1.484-4.722-20.39a3.77 3.77 0 011.084-.306 6.64 6.64 0 011.399-.17 4.322 4.322 0 012.407.61c.302.155.566.376.773.648.207.271.351.586.423.921l2.232 11.36-1.071 2.13.343.135 7.646-13.639a3.775 3.775 0 011.714-1.569 5.641 5.641 0 012.617-.61 7.343 7.343 0 011.504.17c.375.03.741.133 1.077.305l-13.648 23.635a18.983 18.983 0 01-4.38 5.488A7.326 7.326 0 01113.243 40zM94.516 3.316a3.271 3.271 0 011.288-2.052A3.722 3.722 0 0198.21.398h19.518a8.592 8.592 0 01-1.679 4.181 4.189 4.189 0 01-1.47 1.006 4.142 4.142 0 01-1.748.3H100.4l-1.162 6.668h11.249a8.677 8.677 0 01-1.672 4.217 4.19 4.19 0 01-1.494.992 4.144 4.144 0 01-1.766.271h-7.261l-1.553 8.854a4.76 4.76 0 01-.68 1.922 4.681 4.681 0 01-1.419 1.45c-1.091.7-2.751 1.051-4.98 1.051l4.854-27.994z" fill="#9400B5"/></g><defs><clipPath id="clip0_53_814"><path fill="#fff" d="M0 0h136v40H0z"/></clipPath></defs></svg>
